X: 21
T: Connaughtman's Rambles, The
Z: Oisin Morgan
S: https://thesession.org/tunes/19#setting46495
R: jig
M: 6/8
L: 1/8
K: Dmaj
AG|:FAA dAA|BAB dAG|FAA dfe|dBA BAG|
FAA dAA|BAB def|gfe f2e|1 dBA BAG:|2 dBA B2g||
|:fbb faa|fef deg|fbb faa|fed e2g|
fbb faa|fef def|gfe f2e|1 dBA B2g:|2 dBA BAG||

